img/pattern-bg.svg

<svg width="1920" height="1000" viewBox="0 0 1920 1000" fill="none" xmlns="http://www.w3.org/2000/svg">
<path d="M-87 737C-87 591.749 30.7491 474 176 474C321.251 474 439 591.749 439 737C439 882.251 321.251 1000 176 1000H-87V737Z" fill="white" fill-opacity="0.07"/>
<path d="M2065 485C2065 630.251 1947.25 748 1802 748C1656.75 748 1539 630.251 1539 485C1539 339.749 1656.75 222 1802 222H2065V485Z" fill="white" fill-opacity="0.03"/>
<path d="M-87 208C-87 62.7491 30.7491 -55 176 -55C321.251 -55 439 62.7491 439 208C439 353.251 321.251 471 176 471H-87V208Z" fill="white" fill-opacity="0.03"/>
<path d="M439 0H989V555C989 748.3 832.3 905 639 905H439V0Z" fill="white" fill-opacity="0.03"/>
<path d="M1539 1000L989 1000L989 572C989 378.7 1145.7 222 1339 222H1539L1539 1000Z" fill="white" fill-opacity="0.07"/>
<path d="M1539 -41C1539 -186.251 1656.75 -304 1802 -304C1947.25 -304 2065 -186.251 2065 -41C2065 104.251 1947.25 222 1802 222H1539V-41Z" fill="white" fill-opacity="0.07"/>
</svg>

<svg width="1920" height="1000" fill="none" xmlns="http://www.w3.org/2000/svg"><path d="M-87 737c0-145.251 117.75-263 263-263 145.251 0 263 117.749 263 263s-117.749 263-263 263H-87V737Z" fill="#fff" fill-opacity=".07"/><path d="M2065 485c0 145.251-117.75 263-263 263s-263-117.749-263-263 117.75-263 263-263h263v263ZM-87 208C-87 62.75 30.75-55 176-55c145.251 0 263 117.75 263 263 0 145.251-117.749 263-263 263H-87V208ZM439 0h550v555c0 193.3-156.7 350-350 350H439V0Z" fill="#fff" fill-opacity=".03"/><path d="M1539 1000H989V572c0-193.3 156.7-350 350-350h200v778ZM1539-41c0-145.251 117.75-263 263-263s263 117.749 263 263-117.75 263-263 263h-263V-41Z" fill="#fff" fill-opacity=".07"/></svg>
